img/results-01.svg

<svg width="32" height="32" viewBox="0 0 32 32" fill="none" xmlns="http://www.w3.org/2000/svg">
<path d="M13.6 32.0001C9.968 32.0001 6.552 30.5861 3.984 28.0161C1.416 25.4461 0 22.0321 0 18.4001C0 14.7681 1.414 11.3521 3.984 8.7841C6.554 6.2161 9.968 4.8001 13.6 4.8001C14.042 4.8001 14.4 5.1581 14.4 5.6001V17.6001H26.4C26.842 17.6001 27.2 17.9581 27.2 18.4001C27.2 22.0321 25.786 25.4481 23.216 28.0161C20.646 30.5841 17.232 32.0001 13.6 32.0001ZM12.8 6.4261C6.555 6.8391 1.6 12.0521 1.6 18.4001C1.6 25.0181 6.982 30.4001 13.6 30.4001C19.947 30.4001 25.16 25.4451 25.574 19.2001H13.6C13.158 19.2001 12.8 18.8421 12.8 18.4001V6.4261ZM29.6 16.0001H16.8C16.358 16.0001 16 15.6421 16 15.2001V2.4001C16 1.9581 16.358 1.6001 16.8 1.6001C20.432 1.6001 23.848 3.0141 26.416 5.5841C28.984 8.1541 30.4 11.5681 30.4 15.2001C30.4 15.6421 30.042 16.0001 29.6 16.0001ZM17.6 14.4001H28.774C28.379 8.4191 23.58 3.6221 17.6 3.2261V14.4001Z" fill="#008DBB"/>
</svg>

<svg xmlns="http://www.w3.org/2000/svg" width="32" height="32" fill="#B68157" viewBox="0 0 32 32"><title>pie-chart</title><path d="M13.6 32c-3.632 0-7.048-1.414-9.616-3.984s-3.984-5.984-3.984-9.616c0-3.632 1.414-7.048 3.984-9.616s5.984-3.984 9.616-3.984c0.442 0 0.8 0.358 0.8 0.8v12h12c0.442 0 0.8 0.358 0.8 0.8 0 3.632-1.414 7.048-3.984 9.616s-5.984 3.984-9.616 3.984zM12.8 6.426c-6.245 0.413-11.2 5.626-11.2 11.974 0 6.618 5.382 12 12 12 6.347 0 11.56-4.955 11.974-11.2h-11.974c-0.442 0-0.8-0.358-0.8-0.8v-11.974zM29.6 16h-12.8c-0.442 0-0.8-0.358-0.8-0.8v-12.8c0-0.442 0.358-0.8 0.8-0.8 3.632 0 7.048 1.414 9.616 3.984s3.984 5.984 3.984 9.616c0 0.442-0.358 0.8-0.8 0.8zM17.6 14.4h11.174c-0.395-5.981-5.194-10.778-11.174-11.174v11.174z"></path></svg>
